!!!OTL: Napoleon.
!!!OTL-incipit: DER GROSSE KAISER NAPOLEON, ZUM DRITTEN MALE KOMMT ER SCHON
!!!ARE: Europa, Mitteleuropa, Deutschland, Rhein
!!!SCT: Z1103
!!!TXL: @@DE
!!!YEM: Copyright 1995, estate of Helmut Schaffrath.
**kern	**text
*ICvox	*
*M2/4	*
*k[f#c#g#]	*
*A:	*
!LO:TX:a:t=Rheiniſch.	!
{8e	Der
=1	=1
8a	gro-
8cc#/	-ße
8b/	Kaiſer
16ee/	.
16ee/	Na-
=2	=2
8.cc#/	-po-
16b/	-le-
8a}	-on,
{16aL	ʒum
16bJ	.
=3	=3
8cc#/	drit-
8cc#/	-ten-
8dd/	-ma-
16dd/L	-le
16ff#J	.
=4	=4
8.ee/	kommt
16dd/	er
8cc#/}	ſchon,
{8ee/	mit
=5	=5
8ff#/	uns
8ee/	ʒu
4dd/	ſtrei-
=6	=6
4cc#/	-ten,
8r}	.
{16cc#/L	ʒu
16ddJ	.
=7	=7
8.ee/	ſeinem
16cc#/	.
8.ff#/	Marſchall
16ee/	.
=8	=8
8eeqq	.
8dd/	ſprach
16dd/L	er
16cc#J	.
8b}/	fein
{16b/L	die
16cc#J	.
=9	=9
8dd/	Deut-
8b/	-ſchen
8.ee/	al-
16dd/	-le
=10	=10
16ddqq	.
8cc#/	un-
16cc#/L	-ſer
16bJ	.
8a}	ſeyn,
{8a	ſind
=11	=11
8b/	un-
8ff#/	-fre
8ee/L	Beu-
8ddJ	.
=12	=12
4cc#/	-te.
8r}	.
==	==
!!!AGN: Soldaten - Lied
!!!ONB: ESAC (Essen Associative Code) Database: ZUCCAL
!!!AMT: simple duple
!!!AIN: vox
!!!EED: Helmut Schaffrath
!!!EEV: 1.0
!!!GTL: II. Gau- Leuschen.
!!!URL-scan: https://www.digitale-sammlungen.de/de/view/bsb11160573?page=221
!!!ENC: Anna Maria Matuszewska
!!!EEV: 2025/02/04
*-	*-
